X:1
T:Christ, the Life of All the Living
T:Text: Ernst C. Homburg, 1659; tr. Catherine Winkworth, 1863, alt. Tune: Das grosse Cantionale, Darmstadt, 1687
T:87 87 88 with refrain JESU, MEINES LEBENS LEBEN www.hymnary.org/text/christ_the_life_of_all_the_living
T:Christ, the Life of All the Living
T:This hymn is in the public domain. You may freely use this score for personal and congregational worship. If you reproduce the score, please credit Hymnary.org as the source. 
T:This hymn is in the public domain. You may freely use this score for personal and congregational worship. If you reproduce the score, please credit Hymnary.org as the source. 
Z:This hymn is in the public domain. You may freely use this score for personal and congregational worship. If you reproduce the score, please credit Hymnary.org as the source.
%%score ( 1 2 ) ( 3 4 )
L:1/8
M:4/4
K:G
V:1 treble nm="SOPRANO ALTO" snm="S. A."
V:2 treble 
V:3 bass nm="TENOR BASS" snm="T. B."
V:4 bass 
V:1
"^1""^2""^3" G3 G F2 D2 | E2 F2 G2 G2 | B2 d2 c2 B2 | A3 G A4 | G3 G F2 D2 | E2 F2 G2 G2 | %6
w: Christ, the life of|all the liv- ing,|Christ, the death of|death, our foe,|Christ, for us your-|self once giv- ing|
w: You have suf- fered|great af- flic- tion|and have borne it|pa- tient- ly,|e- ven death by|cru- ci- fix- ion:|
w: Lord, for all that|bought our par- don,|for the sor- rows|deep and sore,|for the an- guish|in the gar- den,|
 B2 d2 c2 B2 | A3 G A4 | B3 c d2 G2 | F2 E2 F2 D2 | B3 B A2 A2 | G2 E2 F2 F2 ||1 %12
w: to the dark- est|depths of woe:|through your suf- fering,|death, and mer- rit,|life e- ter- nal|we in- her- it;|
w: our a- tone- ment|full and free.|Lord, you chose to|be tor- ment- ed|that our doom should|be pre- vent- ed;|
w: we will thank you|ev- er- more.|For the vic- tory|of your dy- ing—|sin- ful na- ture|mor- ti- fy- ing—|
"^Refrain" G2 G2 A2 A2 | B3 B c4 | B2 A2 GA B2 | A3 G G4 |] %16
w: thou- sand, thou- sand|thanks are due,|dear- est Je- * sus|un- to you.|
w: ||||
w: ||||
V:2
 D3 D D2 D2 | D2 C2 C2 B,2 | D2 D2 E2 D2 | E3 G F4 | D3 D D2 D2 | D2 C2 C2 D2 | D2 D2 E2 D2 | %7
 E3 G F4 | D2 G2 F2 D2 | D2 ^C2 D2 A,2 | D2 G2 G2 F2 | E2 E2 E2 ^D2 ||1 E2 D2 E2 D2 | D3 =F E4 | %14
 D2 D2 E2 E2 | E2 D2 D4 |] %16
V:3
 B,3 B, A,2 F,2 | G,2 A,2 D,2 D,2 | G,2 A,2 G,2 B,2 | C2 B,2 D4 | B,3 B, A,2 F,2 | %5
 G,2 A,2 D,2 D,2 | G,2 A,2 G,2 B,2 | C2 B,2 D4 | G,2 G,2 A,2 B,2 | A,2 A,2 A,2 F,2 | G,2 D2 E2 D2 | %11
 B,2 A,2 B,2 B,2 ||1 B,2 G,2 G,2 F,2 | G,3 G, G,4 | G,2 A,2 B,A, G,2 | G,2 F,2 B,4 |] %16
V:4
 G,,2 B,,2 D,2 D,2 | C,2 A,,2 G,,2 G,,2 | G,2 F,2 E,2 G,2 | C,2 E,2 D,4 | G,,2 B,,2 D,2 D,2 | %5
 C,2 A,,2 G,,2 G,,2 | G,2 F,2 E,2 G,2 | C,2 E,2 D,4 | G,2 E,2 D,2 B,,2 | D,2 A,,2 D,2 D,2 | %10
 G,,2 B,,2 C,2 D,2 | E,2 C,2 B,,2 B,,2 ||1 E,2 B,,2 C,2 D,2 | G,2 G,,2 C,4 | G,2 F,2 E,3 D, | %15
 C,2 D,2 G,,4 |] %16

